static/data/images/sponsors/appwrite.svg

<svg viewBox="0 0 1600 400" xmlns="http://www.w3.org/2000/svg"><g fill="#f02e65"><path d="m368.384 202.21c0 55.001-44.586 99.589-99.589 99.589-25.547 0-48.846-9.622-66.476-25.434 28.242-12.715 47.903-41.103 47.903-74.083 0-33.023-19.71-61.44-48.011-74.131 17.645-15.87 40.985-25.529 66.584-25.529 55.003 0 99.589 44.587 99.589 99.588z"/><path d="m228.987 122.718c-61.162-46.221-149.426-8.902-158.873 67.177-4.39 35.358 10.442 70.367 38.895 91.809 61.196 46.18 149.434 8.796 158.829-67.29 4.359-35.313-10.451-70.266-38.851-91.697zm-11.077 14.675c49.899 37.653 40.323 115.2-17.236 139.586-26.71 11.318-57.432 7.525-80.589-9.951-49.896-37.654-40.322-115.201 17.236-139.586 26.711-11.316 57.433-7.524 80.589 9.951z"/><path d="m482.978 129.125c13.667 0 25.316 3.537 34.949 10.615 9.632 7.079 16.255 16.461 19.871 28.146v-37.048h17.052v134.858h-17.052v-37.046c-3.616 11.696-10.239 21.082-19.871 28.16-9.633 7.079-21.282 10.618-34.949 10.618-12.184 0-23.093-2.8-32.726-8.397-9.632-5.596-17.123-13.624-22.475-24.084-5.351-10.459-8.029-22.686-8.029-36.68 0-14.156 2.678-26.463 8.029-36.923 5.352-10.449 12.802-18.43 22.353-23.948 9.55-5.516 20.499-8.271 32.848-8.271zm4.444 15.304c-15.148 0-27.292 4.815-36.435 14.449-9.131 9.633-13.697 22.763-13.697 39.389 0 16.629 4.566 29.76 13.697 39.393 9.143 9.631 21.287 14.446 36.435 14.446 9.549 0 18.152-2.22 25.802-6.665 7.659-4.441 13.67-10.74 18.033-18.891 4.361-8.151 6.541-17.577 6.541-28.283 0-10.704-2.18-20.125-6.541-28.268-4.363-8.148-10.374-14.453-18.033-18.903-7.65-4.445-16.253-6.667-25.802-6.667zm177.079-15.304c12.349 0 23.258 2.755 32.725 8.271 9.469 5.518 16.88 13.499 22.232 23.948 5.351 10.46 8.027 22.767 8.027 36.923 0 13.994-2.676 26.221-8.027 36.68-5.352 10.46-12.807 18.488-22.353 24.084-9.55 5.597-20.419 8.397-32.604 8.397-13.832 0-25.521-3.539-35.071-10.618-9.55-7.078-16.134-16.464-19.751-28.16v100.768h-17.297v-198.58h17.297v37.048c3.617-11.685 10.201-21.067 19.751-28.146 9.55-7.078 21.239-10.615 35.071-10.615zm-4.69 15.304c-9.55 0-18.155 2.222-25.816 6.667-7.65 4.45-13.616 10.755-17.895 18.903-4.279 8.143-6.421 17.564-6.421 28.268 0 10.706 2.142 20.132 6.421 28.283s10.245 14.45 17.895 18.891c7.661 4.445 16.266 6.665 25.816 6.665 15.311 0 27.497-4.815 36.557-14.446 9.051-9.633 13.575-22.764 13.575-39.393 0-16.626-4.524-29.756-13.575-39.389-9.06-9.634-21.246-14.449-36.557-14.449zm170.902-15.304c12.351 0 23.26 2.755 32.727 8.271 9.469 5.518 16.881 13.499 22.233 23.948 5.35 10.46 8.027 22.767 8.027 36.923 0 13.994-2.677 26.221-8.027 36.68-5.352 10.46-12.805 18.488-22.355 24.084-9.549 5.597-20.417 8.397-32.605 8.397-13.83 0-25.518-3.539-35.067-10.618-9.552-7.078-16.134-16.464-19.75-28.16v100.768h-17.298v-198.58h17.298v37.048c3.616-11.685 10.198-21.067 19.75-28.146 9.549-7.078 21.237-10.615 35.067-10.615zm-4.686 15.304c-9.549 0-18.157 2.222-25.817 6.667-7.649 4.45-13.614 10.755-17.895 18.903-4.279 8.143-6.419 17.564-6.419 28.268 0 10.706 2.14 20.132 6.419 28.283 4.281 8.151 10.246 14.45 17.895 18.891 7.66 4.445 16.268 6.665 25.817 6.665 15.311 0 27.496-4.815 36.555-14.446 9.051-9.633 13.576-22.764 13.576-39.393 0-16.626-4.525-29.756-13.576-39.389-9.059-9.634-21.244-14.449-36.555-14.449zm259.076-15.55h32.604l-36.802 136.817h-38.532l-29.385-99.526-30.138 99.526h-38.517l-36.557-136.817h34.826l22.231 105.701 30.366-105.701h36.801l30.628 105.701zm84.718 26.168c5.098-8.722 11.845-15.595 20.241-20.622 8.406-5.015 17.791-7.521 28.16-7.521v37.289h-10.126c-25.517 0-38.275 11.854-38.275 35.559v65.944h-34.823v-136.817h34.823zm63.717-65.453c0-5.596 1.977-10.162 5.929-13.697 3.953-3.542 9.14-5.315 15.552-5.315 6.428 0 11.614 1.773 15.566 5.315 3.954 3.535 5.93 8.101 5.93 13.697 0 5.435-1.976 9.924-5.93 13.469-3.952 3.543-9.138 5.316-15.566 5.316-6.412 0-11.599-1.773-15.552-5.316-3.952-3.545-5.929-8.034-5.929-13.469zm3.953 39.285h34.826v136.817h-34.826zm125.961 106.927h13.576v29.89h-18.279c-15.314 0-27.043-3.701-35.194-11.107-8.15-7.416-12.226-19.763-12.226-37.047v-59.278h-19.013v-29.385h19.013v-33.845h34.825v33.845h30.628v29.385h-30.628v59.768c0 6.588 1.319 11.201 3.952 13.835 2.636 2.626 7.085 3.939 13.346 3.939zm167.194-43.712c0 3.461-.407 7.415-1.227 11.857h-100.276c.49 12.185 3.784 21.16 9.883 26.921 6.086 5.761 13.66 8.642 22.721 8.642 8.068 0 14.774-1.976 20.116-5.93 5.352-3.943 8.769-9.289 10.251-16.042h36.8c-1.806 9.55-5.673 18.109-11.596 25.68-5.936 7.579-13.55 13.508-22.846 17.787-9.305 4.279-19.636 6.419-30.992 6.419-13.341 0-25.2-2.839-35.577-8.518-10.368-5.68-18.432-13.79-24.192-24.33-5.771-10.54-8.656-22.973-8.656-37.293 0-14.329 2.885-26.801 8.656-37.413 5.76-10.624 13.824-18.736 24.192-24.33 10.377-5.597 22.236-8.396 35.577-8.396 13.49 0 25.303 2.799 35.436 8.396 10.12 5.594 17.941 13.293 23.457 23.089 5.514 9.794 8.273 20.948 8.273 33.461zm-35.07-3.446c.499-11.206-2.42-19.691-8.763-25.449-6.345-5.763-14.121-8.642-23.333-8.642-9.39 0-17.297 2.879-23.718 8.642-6.427 5.758-9.965 14.243-10.619 25.449z"/><path d="m171.666 167.755c-.118.293-1.643 6.273-3.28 13.368-1.703 7.093-4.4 18.291-5.922 24.914-2.933 12.136-4.692 20.109-4.692 21.163 0 .292 1.819.529 4.044.529h4.048l1.815-8.092c1.057-4.395 3.404-14.48 5.278-22.394 1.877-7.914 4.161-17.529 5.042-21.4.879-3.869 1.759-7.383 1.935-7.795.176-.527-.822-.701-3.871-.701-2.287 0-4.281.174-4.397.408zm-31.483 25.383-5.393 5.864 1.585 1.876c.877 1.054 3.284 3.693 5.334 5.864l3.753 3.983h10.671l-5.044-5.451c-2.757-2.928-5.043-5.745-5.043-6.095 0-.411 2.111-3.047 4.693-5.863 2.578-2.87 4.689-5.336 4.689-5.628 0-.236-2.227-.411-4.923-.411h-4.867zm41.038-5.509c0 .177.998 1.288 2.228 2.52 4.576 4.573 7.799 8.444 7.622 9.203-.115.414-2.345 3.167-5.041 6.039l-4.865 5.334h5.451l5.452-.057 4.981-5.453c2.759-3.046 4.986-5.746 4.986-6.096 0-.292-2.345-3.048-5.278-6.154l-5.272-5.688h-5.104c-2.873 0-5.16.175-5.16.352z"/></g></svg>

<?xml version="1.0" encoding="utf-8"?>
<svg viewBox="0 0 1600 400" xmlns="http://www.w3.org/2000/svg" xmlns:bx="https://boxy-svg.com">
  <path d="M 368.384 202.21 C 368.384 257.211 323.798 301.799 268.795 301.799 C 243.248 301.799 219.949 292.177 202.319 276.365 C 230.561 263.65 250.222 235.262 250.222 202.282 C 250.222 169.259 230.512 140.842 202.211 128.151 C 219.856 112.281 243.196 102.622 268.795 102.622 C 323.798 102.622 368.384 147.209 368.384 202.21 Z" fill="#f02e65" style=""/>
  <path d="M 228.987 122.718 C 167.825 76.497 79.561 113.816 70.114 189.895 C 65.724 225.253 80.556 260.262 109.009 281.704 C 170.205 327.884 258.443 290.5 267.838 214.414 C 272.197 179.101 257.387 144.148 228.987 122.717 Z M 217.91 137.393 C 267.809 175.046 258.233 252.593 200.674 276.979 C 173.964 288.297 143.242 284.504 120.085 267.028 C 70.189 229.374 79.763 151.827 137.321 127.442 C 164.032 116.126 194.754 119.918 217.91 137.393 Z" fill="#f02e65" style="" bx:origin="0.499777 0.499705"/>
  <path d="M 482.978 129.125 C 496.645 129.125 508.294 132.662 517.927 139.74 C 527.559 146.819 534.182 156.201 537.798 167.886 L 537.798 130.838 L 554.85 130.838 L 554.85 265.696 L 537.798 265.696 L 537.798 228.65 C 534.182 240.346 527.559 249.732 517.927 256.81 C 508.294 263.889 496.645 267.428 482.978 267.428 C 470.794 267.428 459.885 264.628 450.252 259.031 C 440.62 253.435 433.129 245.407 427.777 234.947 C 422.426 224.488 419.748 212.261 419.748 198.267 C 419.748 184.111 422.426 171.804 427.777 161.344 C 433.129 150.895 440.579 142.914 450.13 137.396 C 459.68 131.88 470.629 129.125 482.978 129.125 Z M 487.422 144.429 C 472.274 144.429 460.13 149.244 450.987 158.878 C 441.856 168.511 437.29 181.641 437.29 198.267 C 437.29 214.896 441.856 228.027 450.987 237.66 C 460.13 247.291 472.274 252.106 487.422 252.106 C 496.971 252.106 505.574 249.886 513.224 245.441 C 520.883 241 526.894 234.701 531.257 226.55 C 535.618 218.399 537.798 208.973 537.798 198.267 C 537.798 187.563 535.618 178.142 531.257 169.999 C 526.894 161.851 520.883 155.546 513.224 151.096 C 505.574 146.651 496.971 144.429 487.422 144.429 Z M 664.501 129.125 C 676.85 129.125 687.759 131.88 697.226 137.396 C 706.695 142.914 714.106 150.895 719.458 161.344 C 724.809 171.804 727.485 184.111 727.485 198.267 C 727.485 212.261 724.809 224.488 719.458 234.947 C 714.106 245.407 706.651 253.435 697.105 259.031 C 687.555 264.628 676.686 267.428 664.501 267.428 C 650.669 267.428 638.98 263.889 629.43 256.81 C 619.88 249.732 613.296 240.346 609.679 228.65 L 609.679 329.418 L 592.382 329.418 L 592.382 130.838 L 609.679 130.838 L 609.679 167.886 C 613.296 156.201 619.88 146.819 629.43 139.74 C 638.98 132.662 650.669 129.125 664.501 129.125 Z M 659.811 144.429 C 650.261 144.429 641.656 146.651 633.995 151.096 C 626.345 155.546 620.379 161.851 616.1 169.999 C 611.821 178.142 609.679 187.563 609.679 198.267 C 609.679 208.973 611.821 218.399 616.1 226.55 C 620.379 234.701 626.345 241 633.995 245.441 C 641.656 249.886 650.261 252.106 659.811 252.106 C 675.122 252.106 687.308 247.291 696.368 237.66 C 705.419 228.027 709.943 214.896 709.943 198.267 C 709.943 181.641 705.419 168.511 696.368 158.878 C 687.308 149.244 675.122 144.429 659.811 144.429 Z M 830.713 129.125 C 843.064 129.125 853.973 131.88 863.44 137.396 C 872.909 142.914 880.321 150.895 885.673 161.344 C 891.023 171.804 893.7 184.111 893.7 198.267 C 893.7 212.261 891.023 224.488 885.673 234.947 C 880.321 245.407 872.868 253.435 863.318 259.031 C 853.769 264.628 842.901 267.428 830.713 267.428 C 816.883 267.428 805.195 263.889 795.646 256.81 C 786.094 249.732 779.512 240.346 775.896 228.65 L 775.896 329.418 L 758.598 329.418 L 758.598 130.838 L 775.896 130.838 L 775.896 167.886 C 779.512 156.201 786.094 146.819 795.646 139.74 C 805.195 132.662 816.883 129.125 830.713 129.125 Z M 826.027 144.429 C 816.478 144.429 807.87 146.651 800.21 151.096 C 792.561 155.546 786.596 161.851 782.315 169.999 C 778.036 178.142 775.896 187.563 775.896 198.267 C 775.896 208.973 778.036 218.399 782.315 226.55 C 786.596 234.701 792.561 241 800.21 245.441 C 807.87 249.886 816.478 252.106 826.027 252.106 C 841.338 252.106 853.523 247.291 862.582 237.66 C 871.633 228.027 876.158 214.896 876.158 198.267 C 876.158 181.641 871.633 168.511 862.582 158.878 C 853.523 149.244 841.338 144.429 826.027 144.429 Z M 1085.103 128.879 L 1117.707 128.879 L 1080.905 265.696 L 1042.373 265.696 L 1012.988 166.17 L 982.85 265.696 L 944.333 265.696 L 907.776 128.879 L 942.602 128.879 L 964.833 234.58 L 995.199 128.879 L 1032 128.879 L 1062.628 234.58 L 1085.103 128.879 Z M 1169.821 155.047 C 1174.919 146.325 1181.666 139.452 1190.062 134.425 C 1198.468 129.41 1207.853 126.904 1218.222 126.904 L 1218.222 164.193 L 1208.096 164.193 C 1182.579 164.193 1169.821 176.047 1169.821 199.752 L 1169.821 265.696 L 1134.998 265.696 L 1134.998 128.879 L 1169.821 128.879 L 1169.821 155.047 Z M 1233.538 89.594 C 1233.538 83.998 1235.515 79.432 1239.467 75.897 C 1243.42 72.355 1248.607 70.582 1255.019 70.582 C 1261.447 70.582 1266.633 72.355 1270.585 75.897 C 1274.539 79.432 1276.515 83.998 1276.515 89.594 C 1276.515 95.029 1274.539 99.518 1270.585 103.063 C 1266.633 106.606 1261.447 108.379 1255.019 108.379 C 1248.607 108.379 1243.42 106.606 1239.467 103.063 C 1235.515 99.518 1233.538 95.029 1233.538 89.594 Z M 1237.491 128.879 L 1272.317 128.879 L 1272.317 265.696 L 1237.491 265.696 L 1237.491 128.879 Z M 1363.452 235.806 L 1377.028 235.806 L 1377.028 265.696 L 1358.749 265.696 C 1343.435 265.696 1331.706 261.995 1323.555 254.589 C 1315.405 247.173 1311.329 234.826 1311.329 217.542 L 1311.329 158.264 L 1292.316 158.264 L 1292.316 128.879 L 1311.329 128.879 L 1311.329 95.034 L 1346.154 95.034 L 1346.154 128.879 L 1376.782 128.879 L 1376.782 158.264 L 1346.154 158.264 L 1346.154 218.032 C 1346.154 224.62 1347.473 229.233 1350.106 231.867 C 1352.742 234.493 1357.191 235.806 1363.452 235.806 Z M 1530.646 192.094 C 1530.646 195.555 1530.239 199.509 1529.419 203.951 L 1429.143 203.951 C 1429.633 216.136 1432.927 225.111 1439.026 230.872 C 1445.112 236.633 1452.686 239.514 1461.747 239.514 C 1469.815 239.514 1476.521 237.538 1481.863 233.584 C 1487.215 229.641 1490.632 224.295 1492.114 217.542 L 1528.914 217.542 C 1527.108 227.092 1523.241 235.651 1517.318 243.222 C 1511.382 250.801 1503.768 256.73 1494.472 261.009 C 1485.167 265.288 1474.836 267.428 1463.48 267.428 C 1450.139 267.428 1438.28 264.589 1427.903 258.91 C 1417.535 253.23 1409.471 245.12 1403.711 234.58 C 1397.94 224.04 1395.055 211.607 1395.055 197.287 C 1395.055 182.958 1397.94 170.486 1403.711 159.874 C 1409.471 149.25 1417.535 141.138 1427.903 135.544 C 1438.28 129.947 1450.139 127.148 1463.48 127.148 C 1476.97 127.148 1488.783 129.947 1498.916 135.544 C 1509.036 141.138 1516.857 148.837 1522.373 158.633 C 1527.887 168.427 1530.646 179.581 1530.646 192.094 Z M 1495.576 188.648 C 1496.075 177.442 1493.156 168.957 1486.813 163.199 C 1480.468 157.436 1472.692 154.557 1463.48 154.557 C 1454.09 154.557 1446.183 157.436 1439.762 163.199 C 1433.335 168.957 1429.797 177.442 1429.143 188.648 L 1495.576 188.648 Z" style="white-space: pre;" fill="#f02e65"/>
  <path d="M 171.666 167.755 C 171.548 168.048 170.023 174.028 168.386 181.123 C 166.683 188.216 163.986 199.414 162.464 206.037 C 159.531 218.173 157.772 226.146 157.772 227.2 C 157.772 227.492 159.591 227.729 161.816 227.729 L 165.864 227.729 L 167.679 219.637 C 168.736 215.242 171.083 205.157 172.957 197.243 C 174.834 189.329 177.118 179.714 177.999 175.843 C 178.878 171.974 179.758 168.46 179.934 168.048 C 180.11 167.521 179.112 167.347 176.063 167.347 C 173.776 167.347 171.782 167.521 171.666 167.755 Z M 140.183 193.138 L 134.79 199.002 L 136.375 200.878 C 137.252 201.932 139.659 204.571 141.709 206.742 L 145.462 210.725 L 156.133 210.725 L 151.089 205.274 C 148.332 202.346 146.046 199.529 146.046 199.179 C 146.046 198.768 148.157 196.132 150.739 193.316 C 153.317 190.446 155.428 187.98 155.428 187.688 C 155.428 187.452 153.201 187.277 150.505 187.277 L 145.638 187.277 L 140.183 193.138 Z M 181.221 187.629 C 181.221 187.806 182.219 188.917 183.449 190.149 C 188.025 194.722 191.248 198.593 191.071 199.352 C 190.956 199.766 188.726 202.519 186.03 205.391 L 181.165 210.725 L 186.616 210.725 L 192.068 210.668 L 197.049 205.215 C 199.808 202.169 202.035 199.469 202.035 199.119 C 202.035 198.827 199.69 196.071 196.757 192.965 L 191.485 187.277 L 186.381 187.277 C 183.508 187.277 181.221 187.452 181.221 187.629 Z" fill="#f02e65" style=""/>
</svg>
